img/zap.svg

<svg width="120" height="120" viewBox="0 0 120 120" fill="none" xmlns="http://www.w3.org/2000/svg">
<path d="M60 24.3214C40.5268 24.3214 24.6964 40.1518 24.6696 59.625C24.6696 66.2946 26.5446 72.8036 30.0804 78.4018L30.9107 79.7411L27.3482 92.7589L40.7143 89.25L42 90.0268C47.4107 93.2411 53.625 94.9554 59.9732 94.9554H60C79.4464 94.9554 95.7054 79.125 95.7054 59.6518C95.7054 50.2232 91.6339 41.3571 84.9643 34.6875C78.2679 27.9911 69.4286 24.3214 60 24.3214ZM80.7589 74.7857C79.875 77.2768 75.6429 79.5268 73.6071 79.8214C70.2321 80.3304 67.6071 80.0625 60.8839 77.1696C50.25 72.5625 43.2857 61.8482 42.75 61.1518C42.2143 60.4554 38.4107 55.3929 38.4107 50.1696C38.4107 44.9464 41.1429 42.375 42.1339 41.3036C43.0982 40.2321 44.25 39.9643 44.9732 39.9643C45.6696 39.9643 46.3929 39.9643 47.0089 39.9911C47.6518 40.0179 48.5357 39.75 49.3929 41.8125C50.2768 43.9286 52.3929 49.1518 52.6607 49.6875C52.9286 50.2232 53.1161 50.8393 52.7411 51.5357C50.7054 55.6071 48.5357 55.4464 49.6339 57.3214C53.7321 64.3661 57.8304 66.8036 64.0714 69.9375C65.1429 70.4732 65.7589 70.3929 66.375 69.6696C66.9911 68.9732 69.0268 66.5625 69.7232 65.5179C70.4196 64.4464 71.1429 64.6339 72.1071 64.9821C73.0714 65.3304 78.2946 67.9018 79.3661 68.4375C80.4375 68.9732 81.1339 69.2411 81.4018 69.6696C81.6429 70.1786 81.6429 72.3214 80.7589 74.7857ZM107.143 0H12.8571C5.75893 0 0 5.75893 0 12.8571V107.143C0 114.241 5.75893 120 12.8571 120H107.143C114.241 120 120 114.241 120 107.143V12.8571C120 5.75893 114.241 0 107.143 0ZM59.9732 102.107C52.8482 102.107 45.8571 100.312 39.6696 96.9375L17.1429 102.857L23.1696 80.8393C19.4464 74.4107 17.4911 67.0982 17.4911 59.5982C17.5179 36.1875 36.5625 17.1429 59.9732 17.1429C71.3304 17.1429 81.9911 21.5625 90.0268 29.5982C98.0357 37.6339 102.857 48.2946 102.857 59.6518C102.857 83.0625 83.3839 102.107 59.9732 102.107Z" fill="white"/>
</svg>

<svg xmlns="http://www.w3.org/2000/svg" width="120" height="120" fill="none"><path fill="#fff" d="M60 24.321c-19.473 0-35.304 15.83-35.33 35.304 0 6.67 1.875 13.179 5.41 18.777l.83 1.34-3.562 13.017 13.366-3.509 1.286.777a35.21 35.21 0 0 0 17.973 4.928H60c19.446 0 35.705-15.83 35.705-35.303 0-9.429-4.071-18.295-10.74-24.965C78.267 27.992 69.428 24.322 60 24.322Zm20.759 50.465c-.884 2.49-5.116 4.74-7.152 5.035-3.375.51-6 .242-12.723-2.651C50.25 72.562 43.286 61.848 42.75 61.152c-.536-.697-4.34-5.76-4.34-10.982 0-5.224 2.733-7.795 3.724-8.866.964-1.072 2.116-1.34 2.84-1.34.696 0 1.419 0 2.035.027.643.027 1.527-.241 2.384 1.822.884 2.116 3 7.339 3.268 7.874.268.536.455 1.152.08 1.849-2.036 4.071-4.205 3.91-3.107 5.785 4.098 7.045 8.196 9.483 14.437 12.617 1.072.535 1.688.455 2.304-.268.616-.697 2.652-3.108 3.348-4.152.697-1.072 1.42-.884 2.384-.536s6.188 2.92 7.26 3.456c1.07.535 1.767.803 2.035 1.232.24.509.24 2.651-.643 5.116ZM107.143 0H12.857C5.76 0 0 5.759 0 12.857v94.286C0 114.241 5.759 120 12.857 120h94.286c7.098 0 12.857-5.759 12.857-12.857V12.857C120 5.76 114.241 0 107.143 0Zm-47.17 102.107a42.444 42.444 0 0 1-20.303-5.17l-22.527 5.92 6.027-22.018C19.446 74.411 17.49 67.1 17.49 59.6c.027-23.411 19.072-42.456 42.482-42.456 11.357 0 22.018 4.42 30.054 12.455 8.009 8.036 12.83 18.697 12.83 30.054 0 23.41-19.473 42.455-42.884 42.455Z"/></svg>
